static/assets/img/icons/theme/general/attachment-1.svg

<svg width="24px" height="24px" viewBox="0 0 24 24" version="1.1" xmlns="http://www.w3.org/2000/svg" xmlns:xlink="http://www.w3.org/1999/xlink">
    <title>Icon For Attachment#1</title>
    <g stroke="none" stroke-width="1" fill="none" fill-rule="evenodd">
        <rect opacity="0" x="0" y="0" width="24" height="24"></rect>
        <path d="M12.4644661,14.5355339 L9.46446609,14.5355339 C8.91218134,14.5355339 8.46446609,14.9832492 8.46446609,15.5355339 C8.46446609,16.0878187 8.91218134,16.5355339 9.46446609,16.5355339 L12.4644661,16.5355339 L12.4644661,17.5355339 C12.4644661,18.6401034 11.5690356,19.5355339 10.4644661,19.5355339 L6.46446609,19.5355339 C5.35989659,19.5355339 4.46446609,18.6401034 4.46446609,17.5355339 L4.46446609,13.5355339 C4.46446609,12.4309644 5.35989659,11.5355339 6.46446609,11.5355339 L10.4644661,11.5355339 C11.5690356,11.5355339 12.4644661,12.4309644 12.4644661,13.5355339 L12.4644661,14.5355339 Z" fill="#000000" opacity="0.3" transform="translate(8.464466, 15.535534) rotate(-45.000000) translate(-8.464466, -15.535534) "></path>
        <path d="M11.5355339,9.46446609 L14.5355339,9.46446609 C15.0878187,9.46446609 15.5355339,9.01675084 15.5355339,8.46446609 C15.5355339,7.91218134 15.0878187,7.46446609 14.5355339,7.46446609 L11.5355339,7.46446609 L11.5355339,6.46446609 C11.5355339,5.35989659 12.4309644,4.46446609 13.5355339,4.46446609 L17.5355339,4.46446609 C18.6401034,4.46446609 19.5355339,5.35989659 19.5355339,6.46446609 L19.5355339,10.4644661 C19.5355339,11.5690356 18.6401034,12.4644661 17.5355339,12.4644661 L13.5355339,12.4644661 C12.4309644,12.4644661 11.5355339,11.5690356 11.5355339,10.4644661 L11.5355339,9.46446609 Z" fill="#000000" transform="translate(15.535534, 8.464466) rotate(-45.000000) translate(-15.535534, -8.464466) "></path>
    </g>
</svg>

<svg height="24" viewBox="0 0 24 24" width="24" xmlns="http://www.w3.org/2000/svg"><g fill="none" fill-rule="evenodd"><path d="m0 0h24v24h-24z" opacity="0"/><g fill="#000"><path d="m12.4644661 14.5355339h-3.00000001c-.55228475 0-1 .4477153-1 1 0 .5522848.44771525 1 1 1h3.00000001v1c0 1.1045695-.8954305 2-2 2h-4.00000001c-1.1045695 0-2-.8954305-2-2v-4c0-1.1045695.8954305-2 2-2h4.00000001c1.1045695 0 2 .8954305 2 2z" opacity=".3" transform="matrix(.70710678 -.70710678 .70710678 .70710678 -8.506097 10.535534)"/><path d="m11.5355339 9.46446609h3c.5522848 0 1-.44771525 1-1s-.4477152-1-1-1h-3v-1c0-1.1045695.8954305-2 2-2h4c1.1045695 0 2 .8954305 2 2v4.00000001c0 1.1045695-.8954305 2-2 2h-4c-1.1045695 0-2-.8954305-2-2z" transform="matrix(.70710678 -.70710678 .70710678 .70710678 -1.435029 13.464466)"/></g></g></svg>
